X:1
T:Vere Languores
T:R. Bracesco
T:Vere Languores
T:jamc2014
T:jamc2014
T:jamc2014
T:jamc2014
T:jamc2014
T:jamc2014
T:jamc2014
T:jamc2014
C:R. Bracesco
Z:jamc2014
%%score [ 1 2 3 4 ]
L:1/8
Q:1/4=160
M:4/2
K:C
V:1 treble nm="Soprano" snm="S"
V:2 treble nm="Alto" snm="A"
V:3 treble-8 nm="Tenor" snm="T"
V:4 bass nm="Bass" snm="B"
V:1
"^Lento mistico" E8"^dolcissimo" E6 D2 | D8 C8 | z4 E4 E4 E4 | E8 E8- | !breath!E4 E4 F4 G4 | %5
w: Ve- re lan-|guo- res|lan- guo- res|no- stros|_ ip- * se|
 !tenuto!A8 ^G8 | z4 (B4 !>!d4) c4 | !>!B16 | !breath!A4 B4 !>!d4 c4 | !>!B16 | %10
w: tu- lit|et _ do-|lo-|res do- lo- res|no-|
 !breath!A4"^cresc." c4 c4 c4 | d8 d8 | !tenuto!d8 !tenuto!c4 !tenuto!c4 | !>!c8 B8 | z4 A4 G4 G4 | %15
w: stros ip- se por-|ta- vit|cu- jus li-|vo- re|cu- jus li-|
 !>!A8 !courtesy!=G8 | z4 G4 G4 G4 | !tenuto!G8 F8 | !fermata!E16 |"^Meno""^come eco" E8 E4 E4 | %20
w: vo- re|sa- na- ti|su- *|mus|sa- na- ti|
 !tenuto!E16 | !fermata!E16 |"^Tempo poco piû mosso" A16 | _B8 B8 | A16- | A8 G8 | !tenuto!G8 F8 | %27
w: su-|mus.|Dul-|* ce|li-||gnum _|
 d16 | _e8 e8 | d16 | d8 c8 | !breath!_B8 !>!B8- | B8 _B4 B4 | A8 G8 | F8 _E8 | D16- | %36
w: Dul-|* ce|cla-||vos. Dul-|* ci- a|fe- rens|pon- de-|ra|
 !breath!D4 ^F4 A4 c4 | c16 | !breath!!courtesy!=B4 B4 d4 f4 | f16 | %40
w: _ quae so- la|fuis-|ti quae so- la|fuis-|
 !courtesy!=e4"^Poco Meno" d4 c4 B4 | A6 A2 G4 !>!G4- |"^diminuendo molto e rall." G8 F4 F4 | %43
w: ti dig- na sus-|ti- ne- re Re-|* gem coe-|
 E16- | E16 | !breath!E16 |"^come eco" F8 F4 F4 | F16 | !fermata!E16 |] %49
w: lo-||rum|Re- gem coe-|lo-|rum.|
V:2
 C8"^dolcissimo" C6 B,2 | B,8 A,8 | z4 C4 C4 C4 | B,8 B,8- | !breath!B,4 B,4 D4 E4 | %5
w: Ve- re lan-|guo- res|lan- guo- res|no- stros|_ ip- * se|
 !tenuto!E8 E8 | z4 (^G4 !>!B4) A4 | !>!^G16 | !breath!A4 ^G4 !>!B4 A4 | !>!^G16 | %10
w: tu- lit|et _ do-|lo-|res do- lo- res|no-|
 !breath!A4"^cresc." A4 A4 A4 | B8 A8 | z16 | z4 !tenuto!G4 !tenuto!G4 !tenuto!G4 | !>!E16 | E16 | %16
w: stros ip- se por-|ta- vit||cu- jus li-|vo-|re|
 z4 E4 D4 D4 | !tenuto!D12 C4 | !fermata!B,16 | ^C8 C4 C4 | !tenuto!^C16 | !fermata!B,16 | %22
w: sa- na- ti|su- *|mus|sa- na- ti|su-|mus.|
 z4 D4 F4 A4 | !tenuto!A8 G8- | G8 !tenuto!F8- | F8 E8 | !tenuto!^C8 D8 | z4 G4 _B4 d4 | d8 c8- | %29
w: Dul- * ce|li- gnum|_ Dul-|* ce|li- gnum|Dul- * ce|cla- vos.|
 c8 _B4 B4 | _B8 A8 | !breath!G8 !>!G8 | F8 F4 F4 | F8 D8 | D8 C4 _B,4 | A,16- | %36
w: _ Dul- ce|cla- *|vos. Dul-|* ci- a|fe- rens|pon- de- *|ra|
 !breath!A,4 D4 ^F4 A4 | A16 | !breath!G4 G4 B4 d4 | d16 | c4 B4 A4 ^G4 | A6 F2 E4 !>!E4- | %42
w: _ quae so- la|fuis-|ti quae so- la|fuis-|ti dig- na sus-|ti- ne- re Re-|
 E8 D4 D4 | D8 C8 | B,8 D8 | !breath!^C16 | D8 D4 D4 | D16 | !fermata!^C16 |] %49
w: * gem coe-|lo- *||rum|Re- gem coe-|lo-|rum.|
V:3
 z4"^dolcissimo" (E4 F4) F2 F2 | F8 E8 | z4 c4 B4 A4 | A8 ^G8- | !breath!G4 ^G4 A4 c4 | %5
w: Ve- * re lan-|guo- res|lan- guo- res|no- stros|_ ip- * se|
 !tenuto!c8 B8 | z4 (d4 !>!f4) e4 | !>!d16 | !breath!c4 d4 !>!f4 e4 | !>!d16 | %10
w: tu- lit|et _ do-|lo-|res do- lo- res|no-|
 !breath!c4"^cresc." e4 e4 e4 | g8 ^f8 | !tenuto!e8 !tenuto!e4 !tenuto!e4 | !>!e8 d8 | c8 B4 B4 | %15
w: stros ip- se por-|ta- vit|cu- jus li-|vo- re|cu- jus li-|
 !>!c8 B8 | z4 c4 c4 B4 | !tenuto!A16 | !fermata!^G16 | A8 A4 A4 | !tenuto!^G16 | !fermata!^G16 | %22
w: vo- re|sa- na- ti|su-|mus|sa- na- ti|su-|mus.|
 z16 | z4 G4 _B4 d4 | d8 d8 | ^c12 c4 | !tenuto!e8 d8 | z16 | z4 c4 _e4 g4 | g16 | ^f16 | %31
w: |Dul- * ce|li- gnum|Dul- ce|li- gnum||Dul- * ce|cla-||
 !breath!g8 !>!_e8- | e8 d4 d4 | c8 _B8 | _A8 G8 | ^F16- | !breath!F4 A4 c4 _e4 | _e16 | %38
w: vos. Dul-|* ci- a|fe- rens|pon- de-|ra|_ quae so- la|fuis-|
 !breath!d4 d4 f4 _a4 | _a16 | g4 f4 !courtesy!=e4 d4 | c6 c2 c4 z4 | z4 !>!_B4 A4 A2 A2 | %43
w: ti quae so- la|fuis-|ti dig- na sus-|ti- ne- re|Re- * gem coe-|
 ^G8 A8- | A8 ^G8 | !breath!A16 | A8 A4 A4 | A16 | !fermata!A16 |] %49
w: lo- *||rum|Re- gem coe-|lo-|rum.|
V:4
 A,,8"^dolcissimo" A,,4 A,,4 | A,,8 A,,8 | z4 A,,4 A,,4 C,4 | E,8 E,8- | !breath!E,4 E,4 D,4 C,4 | %5
w: Ve- re lan-|guo- res|lan- guo- res|no- stros|_ ip- * se|
 !tenuto!A,,8 E,8 | z16 | z4 (E,4 !>!F,4) E,4 | A,,8 A,,4 z4 | z4 E,4 !>!F,4 E,4 | %10
w: tu- lit||et _ do-|lo- res|do- lo- res|
 A,,8 !breath!A,,4"^cresc." A,4 | G,4 G,4 D4 D4 | z4 A,4 A,4 A,4 | !>!C8 G,8 | A,8 E,4 E,4 | %15
w: no- stros ip-|se por- ta- vit|cu- jus li-|vo- re|cu- jus li-|
 !>!A,8 E,8 | z4 C,4 G,4 G,4 | !tenuto!D,16 | !fermata!E,16 | A,,8 A,,4 A,,4 | !tenuto!^C,16 | %21
w: vo- re|sa- na- ti|su-|mus|sa- na- ti|su-|
 !fermata!E,16 | z16 | z16 | z4 D,4 F,4 A,4 | A,16 | !tenuto!_B,16 | z16 | z16 | z4 G,4 _B,4 D4 | %30
w: mus.|||Dul- * ce|li-|gnum|||Dul- * ce|
 D16 | !breath!_E8 !>!_E,8 | _B,8 B,4 B,4 | F,8 G,8 | C,8 C,8 | D,16- | D,4 z4 z8 | %37
w: cla-|vos. Dul-|* ci- a|fe- rens|pon- de-|ra|_|
 z4 C,4 _E,4 G,4 | G,8 G,4 z4 | z4 F,4 _A,4 C4 | C4 G,4 !courtesy!=A,4 !courtesy!=E,4 | %41
w: quae so- la|fuis- ti|quae so- la|fuis- ti di- *|
 F,4 F,2 F,2 C,4 C,4 | D,8 !>!D,8 | E,8 E,4 E,4 | E,16 | !breath!A,,16 | D,8 D,4 D,4 | D,16 | %48
w: * na sus- ti- ne-|re Re-|* gem coe-|lo-|rum|Re- gem coe-|lo-|
 !fermata!A,,16 |] %49
w: rum.|

